packages/katcn/src/icons/svg/mail.svg

<svg width="24" height="24" viewBox="0 0 24 24" fill="none" xmlns="http://www.w3.org/2000/svg">
<path fill-rule="evenodd" clip-rule="evenodd" d="M5.61728 5C4.24604 5 3 6.22761 3 7.97241V16.0276C3 17.7724 4.24604 19 5.61728 19H18.4787C19.8543 19 21.0741 17.7764 20.9966 16.0731C20.9959 16.0579 20.9955 16.0428 20.9955 16.0276V7.97241C20.9955 6.22761 19.7495 5 18.3783 5H5.61728ZM1 7.97241C1 5.30343 2.96932 3 5.61728 3H18.3783C21.0262 3 22.9955 5.30343 22.9955 7.97241V16.0061C23.1061 18.7062 21.1146 21 18.4787 21H5.61728C2.96932 21 1 18.6966 1 16.0276V7.97241Z" fill="black"/>
<path fill-rule="evenodd" clip-rule="evenodd" d="M5.13 7.50695C5.40231 7.02646 6.01256 6.85769 6.49305 7.12999L11.1718 9.78154C11.7135 10.0728 12.2865 10.0728 12.8282 9.78154L17.507 7.12999C17.9874 6.85769 18.5977 7.02646 18.87 7.50695C19.1423 7.98743 18.9735 8.59769 18.4931 8.86999L13.8056 11.5265L13.7896 11.5353C12.6483 12.1549 11.3517 12.1549 10.2104 11.5353L10.1945 11.5265L5.50696 8.86999C5.02647 8.59769 4.8577 7.98743 5.13 7.50695Z" fill="black"/>
</svg>

<svg xmlns="http://www.w3.org/2000/svg" fill="none" viewBox="0 0 24 24"><path fill="#000" fill-rule="evenodd" d="M5.617 5C4.246 5 3 6.228 3 7.972v8.056C3 17.772 4.246 19 5.617 19H18.48c1.375 0 2.595-1.224 2.518-2.927l-.002-.045V7.972C20.996 6.228 19.75 5 18.379 5zM1 7.972C1 5.303 2.97 3 5.617 3h12.761c2.648 0 4.618 2.303 4.618 4.972v8.034c.11 2.7-1.881 4.994-4.517 4.994H5.617C2.97 21 1 18.697 1 16.028z" clip-rule="evenodd"/><path fill="#000" fill-rule="evenodd" d="M5.13 7.507a1 1 0 0 1 1.363-.377l4.679 2.652a1.68 1.68 0 0 0 1.656 0l4.679-2.652a1 1 0 0 1 .986 1.74l-4.687 2.657-.016.008a3.68 3.68 0 0 1-3.58 0l-.016-.008L5.507 8.87a1 1 0 0 1-.377-1.363" clip-rule="evenodd"/></svg>
